X:11
%%topspace -50
T:Willafjord
M:4/4
L:1/8
K:D
B2 | "D"A2 FA- ADFA | "G"B2 GB- BDGB | "D"A2 FA- ADFA | "A7"EFGA GFED | 
"D"A2 FA- ADFA | "G"B2 GB- BDGB | "A7"ABcd efge | "D"f2 d2 d2 :|]
[|: de | "D"f2 df- ffdf | "A7"geaf gfed | "D"f2 df- fAdf | "A"e2 ce- eAce | 
"D"f2 df- ffdf | "A7"geaf gfed | "A7"ABcd efge | "D"f2 d2 d2 :|]

